packages/foundations/assets/icons/functional/images/maps/navigation_to_right.svg

<svg xmlns="http://www.w3.org/2000/svg" width="32" height="32" fill="none"><path fill="#1A1C1F" fill-rule="evenodd" d="M17.307 4.207a.98.98 0 0 0-.531.552c-.126.3-.103.521.082.813.091.143.851.952 1.689 1.797l1.524 1.538-1.515.003c-.834.002-2.164.023-2.956.048-1.4.042-1.456.048-2 .212a7.43 7.43 0 0 0-3.775 2.658c-.606.818-1.124 2.069-1.248 3.016-.046.355-.065 2.12-.067 6.409l-.003 5.92.126.204c.34.547 1.027.666 1.509.261.355-.299.333.094.37-6.465.023-4.185.051-6.046.095-6.282a5 5 0 0 1 .225-.744c.696-1.752 2.26-2.99 3.995-3.161.278-.027 1.559-.051 2.846-.051l2.34-.002-1.608 1.631c-.885.897-1.673 1.727-1.751 1.845-.275.416-.143.983.302 1.298.188.133.278.16.533.16.278 0 .333-.02.569-.211.144-.115 1.406-1.351 2.803-2.746 2.741-2.735 2.7-2.687 2.623-3.167-.044-.279-.58-.858-3.156-3.412-2.072-2.053-2.273-2.222-2.648-2.222-.088 0-.256.044-.373.098"/></svg>

<svg width="32" height="32" viewBox="0 0 32 32" fill="none" xmlns="http://www.w3.org/2000/svg"><path d="M17.307 4.207 C 17.048 4.327,16.886 4.495,16.776 4.759 C 16.650 5.059,16.673 5.280,16.858 5.572 C 16.949 5.715,17.709 6.524,18.547 7.369 L 20.071 8.907 18.556 8.910 C 17.722 8.912,16.392 8.933,15.600 8.958 C 14.200 9.000,14.144 9.006,13.600 9.170 C 12.115 9.616,10.756 10.573,9.825 11.828 C 9.219 12.646,8.701 13.897,8.577 14.844 C 8.531 15.199,8.512 16.964,8.510 21.253 L 8.507 27.173 8.633 27.377 C 8.973 27.924,9.660 28.043,10.142 27.638 C 10.497 27.339,10.475 27.732,10.512 21.173 C 10.535 16.988,10.563 15.127,10.607 14.891 C 10.642 14.706,10.743 14.371,10.832 14.147 C 11.528 12.395,13.092 11.157,14.827 10.986 C 15.105 10.959,16.386 10.935,17.673 10.935 L 20.013 10.933 18.405 12.564 C 17.520 13.461,16.732 14.291,16.654 14.409 C 16.379 14.825,16.511 15.392,16.956 15.707 C 17.144 15.840,17.234 15.867,17.489 15.867 C 17.767 15.867,17.822 15.847,18.058 15.656 C 18.202 15.541,19.464 14.305,20.861 12.910 C 23.602 10.175,23.561 10.223,23.484 9.743 C 23.440 9.464,22.904 8.885,20.328 6.331 C 18.256 4.278,18.055 4.109,17.680 4.109 C 17.592 4.109,17.424 4.153,17.307 4.207 " fill="#1A1C1F" stroke="none" fill-rule="evenodd"></path></svg>
